svgs/solid/qrcode.svg

<svg xmlns="http://www.w3.org/2000/svg" viewBox="0 0 448 512"><!-- Font Awesome Pro 6.0.0-alpha2 by @fontawesome - https://fontawesome.com License - https://fontawesome.com/license (Commercial License) --><path d="M160 32H32C14.328 32 0 46.326 0 64V192C0 209.674 14.328 224 32 224H160C177.674 224 192 209.674 192 192V64C192 46.326 177.674 32 160 32ZM128 160H64V96H128V160ZM160 288H32C14.328 288 0 302.326 0 320V448C0 465.674 14.328 480 32 480H160C177.674 480 192 465.674 192 448V320C192 302.326 177.674 288 160 288ZM128 416H64V352H128V416ZM416 32H288C270.328 32 256 46.326 256 64V192C256 209.674 270.328 224 288 224H416C433.674 224 448 209.674 448 192V64C448 46.326 433.674 32 416 32ZM384 160H320V96H384V160ZM352 480H384V448H352V480ZM416 320H352V288H256V480H320V384H352V416H448V288H416V320ZM416 480H448V448H416V480Z"/></svg>

<svg xmlns="http://www.w3.org/2000/svg" viewBox="0 0 448 512"><!--! Font Awesome Pro 6.0.0-alpha3 by @fontawesome - https://fontawesome.com License - https://fontawesome.com/license (Commercial License) --><path d="M160 32H32C14.33 32 0 46.33 0 64v128c0 17.67 14.33 32 32 32h128c17.67 0 32-14.33 32-32V64C192 46.33 177.7 32 160 32zM128 160H64V96h64V160zM160 288H32c-17.67 0-32 14.33-32 32v128c0 17.67 14.33 32 32 32h128c17.67 0 32-14.33 32-32v-128C192 302.3 177.7 288 160 288zM128 416H64v-64h64V416zM416 32h-128c-17.67 0-32 14.33-32 32v128c0 17.67 14.33 32 32 32h128c17.67 0 32-14.33 32-32V64C448 46.33 433.7 32 416 32zM384 160h-64V96h64V160zM352 480h32v-32h-32V480zM416 320h-64V288h-96v192h64v-96h32v32h96V288h-32V320zM416 480h32v-32h-32V480z"/></svg>
